lib/brands/icons/c-sharp.svg

<svg xmlns="http://www.w3.org/2000/svg" fill="none" aria-hidden="true" viewBox="0 0 48 48"><g id="c-sharp-Icon"><g id="Group"><path id="Vector" fill="#A179DC" d="M40.0136 16.584C40.0134 15.9787 39.8839 15.4438 39.6221 14.9847C39.3649 14.5333 38.9798 14.155 38.4632 13.8558C34.199 11.3971 29.9307 8.94582 25.6679 6.48455C24.5187 5.82108 23.4044 5.84527 22.2637 6.51827C20.5664 7.51924 12.0687 12.3877 9.53653 13.8544C8.4937 14.4581 7.98625 15.382 7.986 16.5829C7.98438 21.5276 7.986 26.4722 7.98438 31.417C7.98438 32.009 8.10857 32.5335 8.35885 32.9857C8.61614 33.4508 9.00665 33.8395 9.53515 34.1455C12.0675 35.6121 20.5663 40.4803 22.2632 41.4815C23.4044 42.1549 24.5187 42.1789 25.6683 41.5152C29.9312 39.0538 34.1998 36.6027 38.4646 34.144C38.9931 33.8382 39.3836 33.4492 39.6409 32.9844C39.8908 32.5323 40.0152 32.0078 40.0152 31.4156C40.0152 31.4156 40.0152 21.5288 40.0136 16.584Z"/><path id="Vector_2" fill="#280068" d="M24.0489 23.9517L8.35889 32.9856C8.61618 33.4507 9.00669 33.8394 9.53519 34.1454C12.0675 35.612 20.5663 40.4802 22.2632 41.4814C23.4044 42.1548 24.5187 42.1788 25.6683 41.5151C29.9312 39.0537 34.1998 36.6026 38.4646 34.1439C38.9931 33.8381 39.3836 33.4491 39.6409 32.9843L24.0489 23.9517Z"/><path id="Vector_3" fill="#390091" d="M40.0136 16.5839C40.0134 15.9786 39.8839 15.4437 39.6221 14.9846L24.0488 23.9516L39.6409 32.9843C39.8908 32.5322 40.015 32.0077 40.0153 31.4155C40.0153 31.4155 40.0153 21.5287 40.0136 16.5839Z"/><path id="Vector_4" fill="white" d="M33.2863 20.5745V22.2631H34.9749V20.5745H35.8192V22.2631H37.5078V23.1074H35.8192V24.7959H37.5078V25.6402H35.8192V27.3288H34.9749V25.6402H33.2863V27.3288H32.442V25.6402H30.7534V24.7959H32.442V23.1074H30.7534V22.2631H32.442V20.5745H33.2863ZM34.9749 23.1074H33.2863V24.7959H34.9749V23.1074Z"/><path id="Vector_5" fill="white" d="M24.0832 12.0941C28.4876 12.0941 32.333 14.4861 34.3927 18.0416L34.3726 18.0073L29.1906 20.9911C28.1696 19.2624 26.2979 18.0958 24.1508 18.0718L24.0832 18.0714C20.809 18.0714 18.1546 20.7258 18.1546 23.9999C18.1546 25.0707 18.44 26.0744 18.9365 26.9413C19.9584 28.7253 21.8795 29.9286 24.0832 29.9286C26.3006 29.9286 28.2326 28.71 29.2493 26.9069L29.2246 26.9502L34.3989 29.9477C32.3618 33.473 28.569 35.8577 24.2158 35.9052L24.0832 35.9059C19.6649 35.9059 15.8086 33.4992 13.7541 29.9249C12.7511 28.18 12.1772 26.1571 12.1772 23.9999C12.1772 17.4246 17.5076 12.0941 24.0832 12.0941Z"/></g></g></svg>

<svg xmlns="http://www.w3.org/2000/svg" fill="none" aria-hidden="true" viewBox="0 0 48 48"><path fill="#A179DC" d="M40.014 16.584c0-.605-.13-1.14-.392-1.6-.257-.45-.642-.829-1.159-1.128-4.264-2.459-8.532-4.91-12.795-7.371-1.15-.664-2.264-.64-3.404.033-1.698 1.001-10.195 5.87-12.727 7.336-1.043.604-1.55 1.528-1.551 2.729-.002 4.945 0 9.89-.002 14.834 0 .592.125 1.116.375 1.569.257.465.648.854 1.176 1.16 2.533 1.466 11.031 6.334 12.728 7.335 1.141.674 2.256.698 3.405.034 4.263-2.461 8.532-4.912 12.797-7.371.528-.306.919-.695 1.176-1.16.25-.452.374-.976.374-1.568l-.001-14.832Z"/><path fill="#280068" d="m24.049 23.952-15.69 9.034c.257.465.648.853 1.176 1.16 2.533 1.466 11.031 6.334 12.728 7.335 1.141.674 2.256.698 3.405.034 4.263-2.461 8.532-4.912 12.797-7.371.528-.306.919-.695 1.176-1.16l-15.592-9.032Z"/><path fill="#390091" d="M40.014 16.584c0-.605-.13-1.14-.392-1.6L24.05 23.953l15.592 9.032c.25-.452.374-.976.374-1.569l-.001-14.831Z"/><path fill="#fff" d="M33.286 20.575v1.688h1.689v-1.689h.844v1.69h1.689v.843h-1.689v1.689h1.689v.844h-1.689v1.689h-.844V25.64h-1.689v1.689h-.844V25.64h-1.689v-.844h1.689v-1.689h-1.689v-.844h1.689v-1.689h.844Zm1.689 2.532h-1.689v1.689h1.689v-1.689Z"/><path fill="#fff" d="M24.083 12.094c4.405 0 8.25 2.392 10.31 5.948l-.02-.035-5.182 2.984a5.925 5.925 0 0 0-5.04-2.92h-.068a5.929 5.929 0 1 0 5.166 8.836l-.024.043 5.174 2.998a11.902 11.902 0 0 1-10.183 5.957h-.133A11.9 11.9 0 0 1 12.177 24c0-6.575 5.33-11.906 11.906-11.906Z"/></svg>
